Dominus_Dark_Funeral/22/apps/bluegriffon.svg

<svg xmlns="http://www.w3.org/2000/svg" width="24" height="24" viewBox="0 0 6.35 6.35"><defs><linearGradient id="b"><stop offset="0" stop-color="#020000"/><stop offset="1" stop-color="#6f918a" stop-opacity="0"/></linearGradient><linearGradient id="a"><stop offset="0" stop-color="#162d50"/><stop offset="1" stop-color="#2c5aa0"/></linearGradient></defs><path d="M4.56.47h-.02a.16.16 0 0 0-.12.06.23.23 0 0 0-.05.17c.01.08.03.15.13.34.06.11.08.16.1.24a1.96 1.96 0 0 1-.05.96.96.96 0 0 1-.03-.25 1.91 1.91 0 0 0-.04-.32c-.04-.18-.13-.26-.28-.23a.4.4 0 0 0-.12.03l.06.18.06.17-.03.01-.05-.07A1.94 1.94 0 0 0 4 1.6c-.1-.12-.21-.18-.33-.17l-.11.02.14.53.14.52-.03.33-.04.33h-.49c-.05 0-.11.02-.17.04-.2.07-.37.19-.5.35-.14.16-.25.36-.36.63l-.12.33a1.52 1.52 0 0 0-.03.78.83.83 0 0 0 .2.38c.1.09.19.14.3.16.1.02.24.03.24 0a5.02 5.02 0 0 0-.11-.33l.02-.02.04.06c.1.14.16.22.24.27.05.04.1.06.16.07h.13l.08-.03-.24-.38c.16.12.36.23.5.27.17.05.34.03.47-.07l.08-.07a8 8 0 0 0-.66-.28l.3.01.17.02a2.18 2.18 0 0 0 .56 0 1.06 1.06 0 0 0 .47-.25 18.88 18.88 0 0 0-1.13 0l.04-.13s.02 0 .03.02c.26.15.82.11 1.22-.09.11-.06.19-.11.26-.19.1-.09.15-.19.15-.28V4.4l-.22.06-.16.05c-.4.12-.56.16-.77.16-.12 0-.23 0-.22-.01a6.78 6.78 0 0 1 .65-.18c.32-.07.44-.1.59-.15.3-.13.47-.32.53-.61l.01-.21-.35.2-.35.19-.02-.06.05-.03c.15-.08.26-.16.38-.28.23-.23.36-.49.4-.77l-.01-.28a.84.84 0 0 0-.06-.2 15.26 15.26 0 0 0-.67.96l.22-.37a15.45 15.45 0 0 0 .27-.51c.08-.22.1-.4.03-.58a.94.94 0 0 0-.17-.28l-.2.49-.21.49-.29.48-.3.51.06-.14c.06-.17.13-.3.32-.62l.22-.4a2.02 2.02 0 0 0 .24-.92c-.02-.18-.08-.4-.15-.53A.37.37 0 0 0 5.31.7h-.13c-.06.04-.08.08-.08.2l.02.26.02.1v.11c0 .12 0 .15-.02.26a3.98 3.98 0 0 1-.27 1.05c-.02.02.02-.14.08-.41.11-.45.14-.61.14-.84A1.5 1.5 0 0 0 5 .88c-.08-.14-.2-.3-.3-.36a.25.25 0 0 0-.13-.05zM3.15 1.7l-.1.01c-.15.02-.26.08-.32.15a.2.2 0 0 0-.04.2v.02a12.06 12.06 0 0 1-.57.06h-.03-.03v.02l.03.1.03.11s-.02 0-.03-.02a.34.34 0 0 0-.19-.07.2.2 0 0 0-.16.06.2.2 0 0 0-.06.07.36.36 0 0 0-.04.15c0 .07.02.15.04.2v.03h.04c.09 0 .15-.11.22-.14a.57.57 0 0 1 .2 0c.23.04.4.2.39.34 0 .04-.02.07-.05.1a.56.56 0 0 1-.14.1l-.09.05a1.4 1.4 0 0 0-.07.04c-.04.02-.08.06-.08.07h.11l.11-.01a.9.9 0 0 0 .37-.12.4.4 0 0 0 .17-.23l.01-.03.03.02c.1.06.18.09.25.07.06-.01.12-.05.23-.14l.06-.05.05.11.05.11h.1l.1-.02-.03-.12a.39.39 0 0 0-.14-.17 1 1 0 0 0-.18-.09.9.9 0 0 1-.2-.09l-.08-.07.04-.02a.47.47 0 0 0 .29-.28l.08-.28a3.95 3.95 0 0 1 .05-.22l-.29.13L3 2l.1-.1.13-.1v-.01-.04-.03h-.08zm-.67 1.2c-.17.01-.32.05-.48.1a1.1 1.1 0 0 0-.43.26l-.02.03a.1.1 0 0 0-.01.01v.02l.57-.16.12-.03.2-.06.06-.02v-.1-.06zm-1.35.06A.43.43 0 0 0 .96 3c-.1.05-.17.14-.2.28a1.6 1.6 0 0 0-.02.36 4.28 4.28 0 0 1-.02.2.86.86 0 0 1-.1-.16l-.04-.07-.02-.05a.42.42 0 0 0-.1-.1.19.19 0 0 0-.08-.03c-.08 0-.14.07-.16.17-.02.09.02.17.1.2h.06a.3.3 0 0 1 .06 0l.01.04.12.24.13.24a7.51 7.51 0 0 1 .13.63.6.6 0 0 1-.02.08c-.04.08-.04.1-.02.17.05.14.13.22.25.27.03.02.04.02.04 0a.85.85 0 0 0 .05-.18 1 1 0 0 0-.05-.38.95.95 0 0 1-.03-.23l.03.03.12.1c.13.09.14.1.29.25l.13.12c.07.06.1.08.17.1l.07.02c.06 0 .09-.03.1-.1 0-.04-.02-.09-.05-.16a.5.5 0 0 0-.12-.16c-.06-.06-.12-.1-.3-.22-.17-.1-.24-.15-.3-.21-.08-.09-.12-.15-.12-.24a.2.2 0 0 1 .06-.17c.05-.05.1-.07.26-.13s.23-.1.25-.15l.01-.06v-.05c-.04-.07-.15-.1-.32-.12h-.05l-.15.15a3 3 0 0 1-.15.14l.08-.42.08-.43-.01-.01zm.41.34z" fill="#e6e6e6"/></svg>

<?xml version="1.0" encoding="UTF-8" standalone="no"?>
<svg
   xmlns:dc="http://purl.org/dc/elements/1.1/"
   xmlns:cc="http://creativecommons.org/ns#"
   xmlns:rdf="http://www.w3.org/1999/02/22-rdf-syntax-ns#"
   xmlns:svg="http://www.w3.org/2000/svg"
   xmlns="http://www.w3.org/2000/svg"
   xmlns:sodipodi="http://sodipodi.sourceforge.net/DTD/sodipodi-0.dtd"
   xmlns:inkscape="http://www.inkscape.org/namespaces/inkscape"
   width="24"
   height="24"
   viewBox="0 0 6.35 6.35"
   version="1.1"
   id="svg16"
   sodipodi:docname="bluegriffon.svg"
   inkscape:version="0.92.4 (5da689c313, 2019-01-14)">
  <metadata
     id="metadata20">
    <rdf:RDF>
      <cc:Work
         rdf:about="">
        <dc:format>image/svg+xml</dc:format>
        <dc:type
           rdf:resource="http://purl.org/dc/dcmitype/StillImage" />
        <dc:title></dc:title>
      </cc:Work>
    </rdf:RDF>
  </metadata>
  <sodipodi:namedview
     pagecolor="#ffffff"
     bordercolor="#666666"
     borderopacity="1"
     objecttolerance="10"
     gridtolerance="10"
     guidetolerance="10"
     inkscape:pageopacity="0"
     inkscape:pageshadow="2"
     inkscape:window-width="1142"
     inkscape:window-height="480"
     id="namedview18"
     showgrid="false"
     inkscape:zoom="9.8333333"
     inkscape:cx="1.2711864"
     inkscape:cy="12"
     inkscape:window-x="0"
     inkscape:window-y="25"
     inkscape:window-maximized="0"
     inkscape:current-layer="svg16" />
  <defs
     id="defs12">
    <linearGradient
       id="b">
      <stop
         offset="0"
         stop-color="#020000"
         id="stop2" />
      <stop
         offset="1"
         stop-color="#6f918a"
         stop-opacity="0"
         id="stop4" />
    </linearGradient>
    <linearGradient
       id="a">
      <stop
         offset="0"
         stop-color="#162d50"
         id="stop7" />
      <stop
         offset="1"
         stop-color="#2c5aa0"
         id="stop9" />
    </linearGradient>
  </defs>
  <path
     d="M 4.56,0.47 H 4.54 A 0.16,0.16 0 0 0 4.42,0.53 0.23,0.23 0 0 0 4.37,0.7 C 4.38,0.78 4.4,0.85 4.5,1.04 4.56,1.15 4.58,1.2 4.6,1.28 A 1.96,1.96 0 0 1 4.55,2.24 0.96,0.96 0 0 1 4.52,1.99 1.91,1.91 0 0 0 4.48,1.67 C 4.44,1.49 4.35,1.41 4.2,1.44 A 0.4,0.4 0 0 0 4.08,1.47 L 4.14,1.65 4.2,1.82 4.17,1.83 4.12,1.76 A 1.94,1.94 0 0 0 4,1.6 C 3.9,1.48 3.79,1.42 3.67,1.43 L 3.56,1.45 3.7,1.98 3.84,2.5 3.81,2.83 3.77,3.16 H 3.28 C 3.23,3.16 3.17,3.18 3.11,3.2 2.91,3.27 2.74,3.39 2.61,3.55 2.47,3.71 2.36,3.91 2.25,4.18 L 2.13,4.51 A 1.52,1.52 0 0 0 2.1,5.29 0.83,0.83 0 0 0 2.3,5.67 c 0.1,0.09 0.19,0.14 0.3,0.16 0.1,0.02 0.24,0.03 0.24,0 A 5.02,5.02 0 0 0 2.73,5.5 L 2.75,5.48 2.79,5.54 c 0.1,0.14 0.16,0.22 0.24,0.27 0.05,0.04 0.1,0.06 0.16,0.07 H 3.32 L 3.4,5.85 3.16,5.47 C 3.32,5.59 3.52,5.7 3.66,5.74 3.83,5.79 4,5.77 4.13,5.67 L 4.21,5.6 A 8,8 0 0 0 3.55,5.32 l 0.3,0.01 0.17,0.02 a 2.18,2.18 0 0 0 0.56,0 1.06,1.06 0 0 0 0.47,-0.25 18.88,18.88 0 0 0 -1.13,0 L 3.96,4.97 c 0,0 0.02,0 0.03,0.02 C 4.25,5.14 4.81,5.1 5.21,4.9 5.32,4.84 5.4,4.79 5.47,4.71 5.57,4.62 5.62,4.52 5.62,4.43 V 4.4 L 5.4,4.46 5.24,4.51 C 4.84,4.63 4.68,4.67 4.47,4.67 4.35,4.67 4.24,4.67 4.25,4.66 A 6.78,6.78 0 0 1 4.9,4.48 C 5.22,4.41 5.34,4.38 5.49,4.33 5.79,4.2 5.96,4.01 6.02,3.72 L 6.03,3.51 5.68,3.71 5.33,3.9 5.31,3.84 5.36,3.81 C 5.51,3.73 5.62,3.65 5.74,3.53 5.97,3.3 6.1,3.04 6.14,2.76 L 6.13,2.48 A 0.84,0.84 0 0 0 6.07,2.28 15.26,15.26 0 0 0 5.4,3.24 L 5.62,2.87 A 15.45,15.45 0 0 0 5.89,2.36 C 5.97,2.14 5.99,1.96 5.92,1.78 A 0.94,0.94 0 0 0 5.75,1.5 L 5.55,1.99 5.34,2.48 5.05,2.96 4.75,3.47 4.81,3.33 C 4.87,3.16 4.94,3.03 5.13,2.71 L 5.35,2.31 A 2.02,2.02 0 0 0 5.59,1.39 C 5.57,1.21 5.51,0.99 5.44,0.86 A 0.37,0.37 0 0 0 5.31,0.7 H 5.18 C 5.12,0.74 5.1,0.78 5.1,0.9 l 0.02,0.26 0.02,0.1 v 0.11 c 0,0.12 0,0.15 -0.02,0.26 A 3.98,3.98 0 0 1 4.85,2.68 C 4.83,2.7 4.87,2.54 4.93,2.27 5.04,1.82 5.07,1.66 5.07,1.43 A 1.5,1.5 0 0 0 5,0.88 C 4.92,0.74 4.8,0.58 4.7,0.52 A 0.25,0.25 0 0 0 4.57,0.47 Z M 3.15,1.7 3.05,1.71 C 2.9,1.73 2.79,1.79 2.73,1.86 A 0.2,0.2 0 0 0 2.69,2.06 V 2.08 A 12.06,12.06 0 0 1 2.12,2.14 H 2.09 2.06 v 0.02 l 0.03,0.1 0.03,0.11 c 0,0 -0.02,0 -0.03,-0.02 A 0.34,0.34 0 0 0 1.9,2.28 0.2,0.2 0 0 0 1.74,2.34 0.2,0.2 0 0 0 1.68,2.41 0.36,0.36 0 0 0 1.64,2.56 c 0,0.07 0.02,0.15 0.04,0.2 v 0.03 h 0.04 c 0.09,0 0.15,-0.11 0.22,-0.14 a 0.57,0.57 0 0 1 0.2,0 c 0.23,0.04 0.4,0.2 0.39,0.34 0,0.04 -0.02,0.07 -0.05,0.1 A 0.56,0.56 0 0 1 2.34,3.19 L 2.25,3.24 A 1.4,1.4 0 0 0 2.18,3.28 C 2.14,3.3 2.1,3.34 2.1,3.35 H 2.21 L 2.32,3.34 A 0.9,0.9 0 0 0 2.69,3.22 0.4,0.4 0 0 0 2.86,2.99 L 2.87,2.96 2.9,2.98 C 3,3.04 3.08,3.07 3.15,3.05 3.21,3.04 3.27,3 3.38,2.91 L 3.44,2.86 3.49,2.97 3.54,3.08 h 0.1 L 3.74,3.06 3.71,2.94 A 0.39,0.39 0 0 0 3.57,2.77 1,1 0 0 0 3.39,2.68 0.9,0.9 0 0 1 3.19,2.59 L 3.11,2.52 3.15,2.5 A 0.47,0.47 0 0 0 3.44,2.22 L 3.52,1.94 A 3.95,3.95 0 0 1 3.57,1.72 L 3.28,1.85 3,2 3.1,1.9 3.23,1.8 V 1.79 1.75 1.72 H 3.15 Z M 2.48,2.9 C 2.31,2.91 2.16,2.95 2,3 A 1.1,1.1 0 0 0 1.57,3.26 L 1.55,3.29 A 0.1,0.1 0 0 0 1.54,3.3 V 3.32 L 2.11,3.16 2.23,3.13 2.43,3.07 2.49,3.05 V 2.95 2.89 Z M 1.13,2.96 A 0.43,0.43 0 0 0 0.96,3 C 0.86,3.05 0.79,3.14 0.76,3.28 A 1.6,1.6 0 0 0 0.74,3.64 4.28,4.28 0 0 1 0.72,3.84 0.86,0.86 0 0 1 0.62,3.68 L 0.58,3.61 0.56,3.56 A 0.42,0.42 0 0 0 0.46,3.46 0.19,0.19 0 0 0 0.38,3.43 C 0.3,3.43 0.24,3.5 0.22,3.6 0.2,3.69 0.24,3.77 0.32,3.8 h 0.06 a 0.3,0.3 0 0 1 0.06,0 L 0.45,3.84 0.57,4.08 0.7,4.32 A 7.51,7.51 0 0 1 0.83,4.95 0.6,0.6 0 0 1 0.81,5.03 C 0.77,5.11 0.77,5.13 0.79,5.2 c 0.05,0.14 0.13,0.22 0.25,0.27 0.03,0.02 0.04,0.02 0.04,0 A 0.85,0.85 0 0 0 1.13,5.29 1,1 0 0 0 1.08,4.91 0.95,0.95 0 0 1 1.05,4.68 l 0.03,0.03 0.12,0.1 c 0.13,0.09 0.14,0.1 0.29,0.25 l 0.13,0.12 c 0.07,0.06 0.1,0.08 0.17,0.1 L 1.86,5.3 C 1.92,5.3 1.95,5.27 1.96,5.2 1.96,5.16 1.94,5.11 1.91,5.04 A 0.5,0.5 0 0 0 1.79,4.88 C 1.73,4.82 1.67,4.78 1.49,4.66 1.32,4.56 1.25,4.51 1.19,4.45 1.11,4.36 1.07,4.3 1.07,4.21 A 0.2,0.2 0 0 1 1.13,4.04 C 1.18,3.99 1.23,3.97 1.39,3.91 1.55,3.85 1.62,3.81 1.64,3.76 L 1.65,3.7 V 3.65 C 1.61,3.58 1.5,3.55 1.33,3.53 H 1.28 L 1.13,3.68 A 3,3 0 0 1 0.98,3.82 L 1.06,3.4 1.14,2.97 Z M 1.54,3.3 Z"
     id="path14"
     inkscape:connector-curvature="0"
     style="fill:#e6e6e6" />
</svg>
